svgs/light/plate-utensils.svg

<svg xmlns="http://www.w3.org/2000/svg" viewBox="0 0 640 512"><!--! Font Awesome Pro 6.6.0 by @fontawesome - https://fontawesome.com License - https://fontawesome.com/license (Commercial License) Copyright 2024 Fonticons, Inc. --><path d="M16 16C7.2 16 0 23.2 0 32L0 176c0 26.5 21.5 48 48 48l16 0 0 256c0 8.8 7.2 16 16 16s16-7.2 16-16l0-256 16 0c26.5 0 48-21.5 48-48l0-144c0-8.8-7.2-16-16-16s-16 7.2-16 16l0 144c0 8.8-7.2 16-16 16l-16 0L96 32c0-8.8-7.2-16-16-16s-16 7.2-16 16l0 160-16 0c-8.8 0-16-7.2-16-16L32 32c0-8.8-7.2-16-16-16zM498 78.9C455.3 39.8 398.4 16 336 16c-54 0-103.9 17.9-144 48l0 41.9C229.4 70 280.1 48 336 48c58.9 0 112 24.5 149.9 63.8c3.1-12 7.2-22.9 12.1-32.9zm24.5 269.4C488.5 416.9 417.7 464 336 464c-73.8 0-138.6-38.4-175.5-96.4c-8.5 6.5-18.3 11.3-29 14C173.7 450.2 249.5 496 336 496c98.4 0 183-59.2 220-144l-12 0c-7.6 0-14.8-1.3-21.5-3.7zM480 256a144 144 0 1 0 -288 0 144 144 0 1 0 288 0zm-256 0a112 112 0 1 1 224 0 112 112 0 1 1 -224 0zM608 54.4L608 288l-64 0 0-128c0-61.3 39.4-92.2 64-105.6zM640 288l0-251.1c0-11.5-9.3-20.9-20.9-20.9c-2.1 0-4.1 .3-6.1 1C596.2 23.2 512 59.2 512 160l0 128c0 17.7 14.3 32 32 32l64 0 0 160c0 8.8 7.2 16 16 16s16-7.2 16-16l0-160 0-16 0-16z"/></svg>

<svg xmlns="http://www.w3.org/2000/svg" viewBox="0 0 640 512"><!--! Font Awesome Pro 6.5.2 by @fontawesome - https://fontawesome.com License - https://fontawesome.com/license (Commercial License) Copyright 2024 Fonticons, Inc. --><path d="M16 16C7.2 16 0 23.2 0 32V176c0 26.5 21.5 48 48 48H64V480c0 8.8 7.2 16 16 16s16-7.2 16-16V224h16c26.5 0 48-21.5 48-48V32c0-8.8-7.2-16-16-16s-16 7.2-16 16V176c0 8.8-7.2 16-16 16H96V32c0-8.8-7.2-16-16-16s-16 7.2-16 16V192H48c-8.8 0-16-7.2-16-16V32c0-8.8-7.2-16-16-16zM498 78.9C455.3 39.8 398.4 16 336 16c-54 0-103.9 17.9-144 48v41.9C229.4 70 280.1 48 336 48c58.9 0 112 24.5 149.9 63.8c3.1-12 7.2-22.9 12.1-32.9zm24.5 269.4C488.5 416.9 417.7 464 336 464c-73.8 0-138.6-38.4-175.5-96.4c-8.5 6.5-18.3 11.3-29 14C173.7 450.2 249.5 496 336 496c98.4 0 183-59.2 220-144H544c-7.6 0-14.8-1.3-21.5-3.7zM480 256a144 144 0 1 0 -288 0 144 144 0 1 0 288 0zm-256 0a112 112 0 1 1 224 0 112 112 0 1 1 -224 0zM608 54.4V288H544V160c0-61.3 39.4-92.2 64-105.6zM640 288V36.9c0-11.5-9.3-20.9-20.9-20.9c-2.1 0-4.1 .3-6.1 1C596.2 23.2 512 59.2 512 160V288c0 17.7 14.3 32 32 32h64V480c0 8.8 7.2 16 16 16s16-7.2 16-16V320 304 288z"/></svg>
